X:8
T:Big Top Tent
R:reel
C:Paul S. Cranford
O:Cape Breton Island
S:http://www.cranfordpub.com
D:currently unrecorded
B:currently unpublished in book form
Z:psc
H:                                                        copyrights Cranford Publications, SOCAN
L:1/8
Q:333
M:C|
K:A
F|E2 CE A,CEA|c2 ec BAFA|d2 fd ceAF|GBEG FECD|
E2 CE A,CEA|c2 ec BAFA|d2 fd cBAF|EFGE A2 A:|
|:B|c2 ec dcBA|GBEG FECD|E2 CE FADF|[1GBEG FGAB|
c2 ec dcBA|GBEG FECD|E2 CE FADF|EFGE A2 A:|
[2GBEG FGAF|E2 CE A,CEA|c2 ec BAFA|d2 fd cBAF|EFGE A2 A:|
